!!!OTL: ES ZIEHT EIN STILLER ENGEL
!!!ARE: Europa, Mitteleuropa, Deutschland
!!!SCT: B0739
!!!YEM: Copyright 1995, estate of Helmut Schaffrath.
**kern
*ICvox
*Ivox
*M6/8
*k[f#]
*G:
{8d
=1
4b
8b
4a
8a
=2
4.g
4f#}
{8f#
=3
4e
8e
8cc
8b
8a
=4
4.g
4f#}
{8a
=5
4b
8b
4cc#
8cc#
=6
4.dd
4a}
{8b
=7
4a
8dd
4ee
8cc#
=8
[4.dd
8dd]
8r}
{8d
=9
4cc
8cc
8cc
8b
8a
=10
4dd
8cc
4b}
{8g
=11
4ee
8dd
8dd
8cc
8a
=12
4.b
8a
8r}
{8a
=13
4b
8b
4g
8g
=14
4.dd
4b}
{8g
=15
8ee
8cc
8a
8g
8a
8f#
=16
[4.dd
4dd]}
{8g
=17
8ee
16dd
16cc
16b
16a
8g
8a
8f#
=18
2g
8r}
==
!!!AGN: Moral - Lied, religioes
!!!ONB: ESAC (Essen Associative Code) Database: BOEHME
!!!AMT: compound duple
!!!AIN: vox
!!!EED: Helmut Schaffrath
!!!EEV: 1.0
*-
